X:86
T:Anglais efter Jöns Persson
T:(SvL Skåne nr. 86)
R:Anglais
Z:Patrik Månsson, 2009-01-12
O:Roalöv, Skåne
S:efter Jöns Persson
S:Svenska Låtar Skåne
B:Svenska Låtar Skåne
M:C
L:1/8
K:Bb
|: BFDF Bdgf | ecAF Acfe | dBFB Aced | (cF)Ac B4 :|
|: Bcde f2 g2 | gfga b2 d2 | edcd c2 c'2 | (af)ga b2 z2 :|

